sequoia/src/pages/Main/Utility/assets/leaf.svg

<svg width="112" height="120" viewBox="0 0 112 120" fill="none" xmlns="http://www.w3.org/2000/svg">
<g filter="url(#filter0_dii_370_25070)">
<path d="M52.6266 11.8554C54.7272 10.7001 57.2729 10.7001 59.3734 11.8554L92.3734 30.0054C94.6103 31.2356 96 33.5861 96 36.1389V71.8611C96 74.4139 94.6103 76.7644 92.3734 77.9946L59.3734 96.1446C57.2729 97.2999 54.7271 97.2999 52.6266 96.1446L19.6266 77.9946C17.3897 76.7644 16 74.4139 16 71.8611V36.1389C16 33.5861 17.3897 31.2356 19.6266 30.0054L52.6266 11.8554Z" fill="url(#paint0_radial_370_25070)" fill-opacity="0.179" shape-rendering="crispEdges"/>
</g>
<g clip-path="url(#clip0_370_25070)">
<path d="M66.4252 38.3994C66.1509 38.0828 65.7269 37.9393 65.3167 38.0239C62.0784 38.6918 59.0293 40.2101 56.5043 42.4547C53.989 40.2193 50.9406 38.6943 47.6905 38.0239C47.2805 37.9394 46.8565 38.0828 46.5821 38.3994C40.8935 44.963 40.2806 54.4337 44.8122 61.6415C47.0406 65.1856 50.822 66.7634 54.7231 66.0739C55.004 68.6591 55.0448 71.2261 54.8425 73.7501C54.7886 74.4227 55.3193 75 55.9974 75C56.5947 75 57.1013 74.5408 57.1498 73.935C57.3653 71.2467 57.3204 68.5147 57.018 65.7655C61.2171 67.0768 65.6846 65.6341 68.195 61.6414C72.7282 54.4314 72.112 44.9609 66.4252 38.3994V38.3994ZM46.7719 60.4093C42.8863 54.2295 43.2978 46.1993 47.8921 40.4435C55.11 42.2478 60.0679 48.5075 60.6334 55.6546C60.9296 59.4 58.8617 61.8246 56.6285 63.0034C56.0745 59.7844 55.1917 56.6774 54.0378 53.6234L55.3564 49.8915C55.5693 49.2888 55.2534 48.6276 54.6507 48.4147C54.0478 48.2016 53.3867 48.5177 53.1738 49.1204L52.717 50.4133C52.0501 48.9149 51.3117 47.4129 50.503 45.9117C50.1999 45.349 49.4979 45.1386 48.9352 45.4417C48.3724 45.7448 48.162 46.4468 48.4651 47.0095C50.3782 50.5607 51.8823 54.1092 52.954 57.595L50.5213 56.7548C49.9172 56.5462 49.2582 56.8667 49.0495 57.471C48.8408 58.0751 49.1614 58.7341 49.7656 58.9428L53.7017 60.3023C53.9863 61.464 54.2199 62.6054 54.4112 63.7787C51.4442 64.3408 48.5312 63.2075 46.7719 60.4093ZM66.2354 60.4093C64.6702 62.8988 62.1751 64.104 59.4525 63.8927C62.009 61.7861 63.1991 58.7345 62.941 55.4721C62.6127 51.323 60.9582 47.2969 58.1395 44.0978C60.147 42.3409 62.5457 41.0858 65.1152 40.4435C69.7338 46.2299 70.0992 54.2643 66.2354 60.4093V60.4093Z" fill="white"/>
</g>
<defs>
<filter id="filter0_dii_370_25070" x="0" y="0.98877" width="112" height="118.022" filterUnits="userSpaceOnUse" color-interpolation-filters="sRGB">
<feFlood flood-opacity="0" result="BackgroundImageFix"/>
<feColorMatrix in="SourceAlpha" type="matrix" values="0 0 0 0 0 0 0 0 0 0 0 0 0 0 0 0 0 0 127 0" result="hardAlpha"/>
<feOffset dy="6"/>
<feGaussianBlur stdDeviation="8"/>
<feComposite in2="hardAlpha" operator="out"/>
<feColorMatrix type="matrix" values="0 0 0 0 0 0 0 0 0 0 0 0 0 0 0 0 0 0 0.25 0"/>
<feBlend mode="normal" in2="BackgroundImageFix" result="effect1_dropShadow_370_25070"/>
<feBlend mode="normal" in="SourceGraphic" in2="effect1_dropShadow_370_25070" result="shape"/>
<feColorMatrix in="SourceAlpha" type="matrix" values="0 0 0 0 0 0 0 0 0 0 0 0 0 0 0 0 0 0 127 0" result="hardAlpha"/>
<feOffset dx="-1.12" dy="1.12"/>
<feGaussianBlur stdDeviation="0.56"/>
<feComposite in2="hardAlpha" operator="arithmetic" k2="-1" k3="1"/>
<feColorMatrix type="matrix" values="0 0 0 0 1 0 0 0 0 1 0 0 0 0 1 0 0 0 0.558 0"/>
<feBlend mode="normal" in2="shape" result="effect2_innerShadow_370_25070"/>
<feColorMatrix in="SourceAlpha" type="matrix" values="0 0 0 0 0 0 0 0 0 0 0 0 0 0 0 0 0 0 127 0" result="hardAlpha"/>
<feOffset dx="1.12" dy="-1.12"/>
<feGaussianBlur stdDeviation="0.56"/>
<feComposite in2="hardAlpha" operator="arithmetic" k2="-1" k3="1"/>
<feColorMatrix type="matrix" values="0 0 0 0 0.84 0 0 0 0 0.84 0 0 0 0 0.84 0 0 0 0.558 0"/>
<feBlend mode="normal" in2="effect2_innerShadow_370_25070" result="effect3_innerShadow_370_25070"/>
</filter>
<radialGradient id="paint0_radial_370_25070" cx="0" cy="0" r="1" gradientUnits="userSpaceOnUse" gradientTransform="translate(56 54) rotate(90) scale(44 40)">
<stop stop-color="white"/>
<stop offset="1" stop-color="white" stop-opacity="0.21"/>
</radialGradient>
<clipPath id="clip0_370_25070">
<rect width="37" height="37" fill="white" transform="translate(38 38)"/>
</clipPath>
</defs>
</svg>

<svg width="112" height="120" fill="none" xmlns="http://www.w3.org/2000/svg"><g filter="url(#a)"><path d="M52.63 11.86a7 7 0 0 1 6.74 0l33 18.15A7 7 0 0 1 96 36.14v35.72A7 7 0 0 1 92.37 78l-33 18.15a7 7 0 0 1-6.74 0L19.63 78A7 7 0 0 1 16 71.86V36.14A7 7 0 0 1 19.63 30l33-18.15Z" fill="url(#b)" fill-opacity=".18" shape-rendering="crispEdges"/></g><g clip-path="url(#c)"><path d="M66.43 38.4c-.28-.32-.7-.46-1.11-.38a19.08 19.08 0 0 0-8.82 4.43 19.1 19.1 0 0 0-8.8-4.43c-.42-.08-.84.06-1.12.38a19.6 19.6 0 0 0-1.77 23.24 9.5 9.5 0 0 0 9.91 4.43c.28 2.59.32 5.16.12 7.68a1.16 1.16 0 0 0 2.31.19c.22-2.7.17-5.43-.13-8.17a9.55 9.55 0 0 0 11.17-4.13 19.6 19.6 0 0 0-1.76-23.24Zm-19.66 22a17.3 17.3 0 0 1 1.12-19.96 16.98 16.98 0 0 1 12.74 15.21 7.37 7.37 0 0 1-4 7.35 50.85 50.85 0 0 0-2.6-9.38l1.33-3.73a1.16 1.16 0 1 0-2.19-.77l-.45 1.3c-.67-1.5-1.4-3-2.22-4.5A1.16 1.16 0 0 0 48.47 47a58.93 58.93 0 0 1 4.48 10.59l-2.43-.85a1.16 1.16 0 0 0-.75 2.2l3.93 1.35c.29 1.16.52 2.3.71 3.48a7.19 7.19 0 0 1-7.64-3.37Zm19.47 0a7.16 7.16 0 0 1-6.79 3.5 9.67 9.67 0 0 0 3.5-8.43 19.57 19.57 0 0 0-4.81-11.37c2-1.76 4.4-3.01 6.98-3.66a17.3 17.3 0 0 1 1.12 19.97Z" fill="#fff"/></g><defs><radialGradient id="b" cx="0" cy="0" r="1" gradientUnits="userSpaceOnUse" gradientTransform="matrix(0 44 -40 0 56 54)"><stop stop-color="#fff"/><stop offset="1" stop-color="#fff" stop-opacity=".21"/></radialGradient><clipPath id="c"><path fill="#fff" transform="translate(38 38)" d="M0 0h37v37H0z"/></clipPath><filter id="a" x="0" y=".99" width="112" height="118.02" filterUnits="userSpaceOnUse" color-interpolation-filters="sRGB"><feFlood flood-opacity="0" result="BackgroundImageFix"/><feColorMatrix in="SourceAlpha" values="0 0 0 0 0 0 0 0 0 0 0 0 0 0 0 0 0 0 127 0" result="hardAlpha"/><feOffset dy="6"/><feGaussianBlur stdDeviation="8"/><feComposite in2="hardAlpha" operator="out"/><feColorMatrix values="0 0 0 0 0 0 0 0 0 0 0 0 0 0 0 0 0 0 0.25 0"/><feBlend in2="BackgroundImageFix" result="effect1_dropShadow_370_25070"/><feBlend in="SourceGraphic" in2="effect1_dropShadow_370_25070" result="shape"/><feColorMatrix in="SourceAlpha" values="0 0 0 0 0 0 0 0 0 0 0 0 0 0 0 0 0 0 127 0" result="hardAlpha"/><feOffset dx="-1.12" dy="1.12"/><feGaussianBlur stdDeviation=".56"/><feComposite in2="hardAlpha" operator="arithmetic" k2="-1" k3="1"/><feColorMatrix values="0 0 0 0 1 0 0 0 0 1 0 0 0 0 1 0 0 0 0.558 0"/><feBlend in2="shape" result="effect2_innerShadow_370_25070"/><feColorMatrix in="SourceAlpha" values="0 0 0 0 0 0 0 0 0 0 0 0 0 0 0 0 0 0 127 0" result="hardAlpha"/><feOffset dx="1.12" dy="-1.12"/><feGaussianBlur stdDeviation=".56"/><feComposite in2="hardAlpha" operator="arithmetic" k2="-1" k3="1"/><feColorMatrix values="0 0 0 0 0.84 0 0 0 0 0.84 0 0 0 0 0.84 0 0 0 0.558 0"/><feBlend in2="effect2_innerShadow_370_25070" result="effect3_innerShadow_370_25070"/></filter></defs></svg>
